X: 1
T:Fantaisie en trois pieces breves
T:II - Errance
M:4/4
C:Jean-Benot Walker-Viry
L:1/4
K:Bbmaj
GAB2 | A2e2 | d2c2- | cB/2A/2c2 | breathBG _A2 |
c2breath=B2 | _B2c2 | GA2breathB | fe2g/2f/2 | fd2c |
^c2breathd2 | mff3e- | e_d2c- | cB2A | B2A2 |
breathB2breathF2 | f3e- | e_d2 c- | cB2.A | ._A.G.F.=A | B4 |]
